icons/relative-direction-32.svg

<svg id="icons" xmlns="http://www.w3.org/2000/svg" viewBox="0 0 32 32"><defs><style>.cls-1{fill:none;}</style></defs><rect class="cls-1" width="32" height="32"/><path d="M5,23H6v2H5Zm1-3H5v2H6Zm0-3H5v2H6Zm0-3H5v2H6Zm0-3H5v2H6ZM6,8H5v2H6Zm21,2.99994H24.56635L24.56641,11,7,28.56641V31H4V28H5V26H6v2h.43359L24,10.43359V7.99994h3ZM6,29H5v1H6ZM26,8.99994H25v1h1ZM5,5H4V2H7V5H6V7H5ZM5,4H6V3H5ZM7,6.06238v.90747c.50952-.03558,1.01312-.05963,1.5-.05963A19.51351,19.51351,0,0,1,18.3067,10H16v1h4V7H19V9.27606A20.82318,20.82318,0,0,0,8.5,6.00879C8.00787,6.00879,7.50513,6.03082,7,6.06238Z"/></svg>

<svg xmlns="http://www.w3.org/2000/svg" viewBox="0 0 32 32"><path fill="none" d="M0 0h32v32H0z"/><path d="M5 23h1v2H5zm1-3H5v2h1zm0-3H5v2h1zm0-3H5v2h1zm0-3H5v2h1zm0-3H5v2h1zm21 3h-2.434L7 28.566V31H4v-3h1v-2h1v2h.434L24 10.434V8h3zM6 29H5v1h1zM26 9h-1v1h1zM5 5H4V2h3v3H6v2H5zm0-1h1V3H5zm2 2.062v.908c.51-.036 1.013-.06 1.5-.06A19.514 19.514 0 0 1 18.307 10H16v1h4V7h-1v2.276A20.823 20.823 0 0 0 8.5 6.01c-.492 0-.995.022-1.5.053z"/></svg>
